X: 121008
M: 2/4
L: 1/16
K: D
uA2 |\
d2d2 efge | f2d2d2 :|
|: (fg) |\
a2fa g2eg | f2df ecA2 |\
=c2c2 e=fge | =c2c2 e=fge |\
a2fa g2eg | f2df ecA2 |\
d2d2 efge | f2d2d2 :|


